X: 07065
T: JULIE'S WALTZ
C: Bob McQuillen 8 Feb 89
B: Bob's Note Book 7 #65
%R: waltz
Z: 2020 John Chambers <jc:trillian.mit.edu>
M: 3/4
L: 1/4
K: G
BA \
| "G"G>ED | "C"EGE | "G"ED>B, | D2G/E/ | D>EG | "Em"BGG/B/ | "Am"dc>B | "D7"A2B/A/ |
| "G"G>ED | "C"EGE | "G"ED>B, | D"C"GE | "G"DGc | "D7"B>GA | "C"G3- | "G"G :|
|: Bc \
| "G"d>Bd | "C"ege | "G"ed>B | d2B/G/ | "Am"A2G/A/ | "Bm"B2A/B/ | "C"cde | "D"d2B/c/ |
| "G"dB>d | "C"ege | "Bm"d>ed | "Em"BGB | "C"AG>E | "G"DBd | "D7"(3(c/d/c/) BA | "G"G :|
%%begintext align
%% Julie Blackmore
%% was one of my favorite school girls at the
%% high school where I taught for so many years,
%% and so this waltz is for you, Julie, with love from
%% MAC
%%endtext

%%sep 1 1 500

%%sep 1 1 500

